img/svg/logos/6.svg

<svg width="99" height="30" viewBox="0 0 99 30" fill="none" xmlns="http://www.w3.org/2000/svg">
<path d="M23.5 16C24.3284 16 25 15.5523 25 15C25 14.4477 24.3284 14 23.5 14C22.6716 14 22 14.4477 22 15C22 15.5523 22.6716 16 23.5 16Z" fill="#707070"/>
<path d="M23.5 25C24.3284 25 25 24.5523 25 24C25 23.4477 24.3284 23 23.5 23C22.6716 23 22 23.4477 22 24C22 24.5523 22.6716 25 23.5 25Z" fill="#707070"/>
<path d="M14.5 25C15.3284 25 16 24.5523 16 24C16 23.4477 15.3284 23 14.5 23C13.6716 23 13 23.4477 13 24C13 24.5523 13.6716 25 14.5 25Z" fill="#707070"/>
<path d="M14.5 18C15.8807 18 17 16.6569 17 15C17 13.3431 15.8807 12 14.5 12C13.1193 12 12 13.3431 12 15C12 16.6569 13.1193 18 14.5 18Z" fill="#707070"/>
<path d="M5.5 9C6.88071 9 8 7.65685 8 6C8 4.34314 6.88071 3 5.5 3C4.11929 3 3 4.34314 3 6C3 7.65685 4.11929 9 5.5 9Z" fill="#707070"/>
<path d="M5.5 18C6.88071 18 8 16.6569 8 15C8 13.3431 6.88071 12 5.5 12C4.11929 12 3 13.3431 3 15C3 16.6569 4.11929 18 5.5 18Z" fill="#707070"/>
<path d="M14.5 9C15.8807 9 17 7.65685 17 6C17 4.34314 15.8807 3 14.5 3C13.1193 3 12 4.34314 12 6C12 7.65685 13.1193 9 14.5 9Z" fill="#707070"/>
<path d="M23.5 9C24.8807 9 26 7.65685 26 6C26 4.34314 24.8807 3 23.5 3C22.1193 3 21 4.34314 21 6C21 7.65685 22.1193 9 23.5 9Z" fill="#707070"/>
<path d="M5.5 27C6.88071 27 8 25.6569 8 24C8 22.3431 6.88071 21 5.5 21C4.11929 21 3 22.3431 3 24C3 25.6569 4.11929 27 5.5 27Z" fill="#707070"/>
<path d="M50.6936 11.3492V13.4325C49.6209 11.8452 47.6899 10.9524 45.7053 11.002C41.9507 11.0516 38.9471 13.9286 39.0007 17.4504V17.5C39.0007 21.1706 42.0044 23.998 45.7053 23.998C47.7436 24.0476 49.6209 23.1548 50.6936 21.5675V23.7004H53V11.3492H50.6936ZM45.9735 21.9147C43.3453 21.9643 41.1998 19.9802 41.1462 17.5496C41.0926 15.119 43.238 13.1349 45.8663 13.0853C48.4945 13.0357 50.64 15.0198 50.6936 17.4504V17.5C50.7472 19.881 48.7627 21.8651 46.1881 21.9147C46.1344 21.9147 46.0272 21.9147 45.9735 21.9147Z" fill="#707070"/>
<path d="M61.7739 10.7136C59.8812 10.6629 58.1379 11.6259 57.1418 13.1971V6H55V23.6886H57.1418V21.5092C58.1379 23.1311 59.931 24.0941 61.7739 23.9927C65.2107 23.9927 68 21.1037 68 17.3531C68 13.6026 65.2107 10.7136 61.7739 10.7136ZM61.5249 21.864C59.0843 21.9147 57.0421 19.938 56.9923 17.4545C56.9425 14.971 58.8851 12.893 61.3257 12.8423C63.7663 12.7916 65.8084 14.7683 65.8582 17.2518C65.8582 17.3025 65.8582 17.3025 65.8582 17.3531C65.9579 19.786 64.0651 21.8133 61.6743 21.9147C61.6245 21.864 61.5747 21.9147 61.5249 21.864Z" fill="#707070"/>
<path d="M72.1639 13.3636V11.2055H70V24H72.1639V17.2174C72.1639 14.1858 74.1803 13.2095 76 13.3123V11C74.4262 11 72.9508 11.5652 72.1639 13.3636Z" fill="#707070"/>
<path d="M80 24H78V11H80V24Z" fill="#707070"/>
<path d="M88.541 23.9986C90.8033 24.0479 92.918 22.7678 94 20.7985L92.1803 19.7154C91.4426 21.0447 90.0656 21.8816 88.4918 21.8816C86.082 21.8816 84.1147 19.9124 84.1147 17.5C84.1147 15.0876 86.082 13.1184 88.4918 13.1184C90.0164 13.0691 91.4426 13.9061 92.082 15.2846L93.8525 14.2507C92.8197 12.2322 90.7541 10.9521 88.4918 11.0014C84.9016 11.0014 82 13.9061 82 17.5C82.0492 21.0939 84.9508 23.9986 88.541 23.9986Z" fill="#707070"/>
<path d="M38 8.1436V6.02267C34.64 5.77018 32.8667 7.63861 32.8667 11.022V11.426H31V13.5469H32.8667V24H34.92V13.5469H38V11.426H34.92V11.022C34.92 8.85057 35.9933 7.9921 38 8.1436Z" fill="#707070"/>
<path d="M79 15C79.5523 15 80 14.3284 80 13.5C80 12.6716 79.5523 12 79 12C78.4477 12 78 12.6716 78 13.5C78 14.3284 78.4477 15 79 15Z" fill="#707070"/>
</svg>

<svg width="99" height="30" viewBox="0 0 99 30" fill="none" xmlns="http://www.w3.org/2000/svg"><path d="M23.5 16c.828 0 1.5-.448 1.5-1s-.672-1-1.5-1-1.5.448-1.5 1 .672 1 1.5 1zm0 9c.828 0 1.5-.448 1.5-1s-.672-1-1.5-1-1.5.448-1.5 1 .672 1 1.5 1zm-9 0c.828 0 1.5-.448 1.5-1s-.672-1-1.5-1-1.5.448-1.5 1 .672 1 1.5 1zm0-7c1.38 0 2.5-1.343 2.5-3s-1.12-3-2.5-3-2.5 1.343-2.5 3 1.12 3 2.5 3zm-9-9C6.88 9 8 7.657 8 6S6.88 3 5.5 3 3 4.343 3 6s1.12 3 2.5 3zm0 9C6.88 18 8 16.657 8 15s-1.12-3-2.5-3S3 13.343 3 15s1.12 3 2.5 3zm9-9C15.88 9 17 7.657 17 6s-1.12-3-2.5-3S12 4.343 12 6s1.12 3 2.5 3zm9 0C24.88 9 26 7.657 26 6s-1.12-3-2.5-3S21 4.343 21 6s1.12 3 2.5 3zm-18 18C6.88 27 8 25.657 8 24s-1.12-3-2.5-3S3 22.343 3 24s1.12 3 2.5 3zm45.194-15.65v2.082c-1.073-1.587-3.004-2.48-4.989-2.43-3.754.05-6.758 2.927-6.704 6.448v.05c0 3.67 3.003 6.498 6.704 6.498 2.039.05 3.916-.843 4.989-2.43V23.7H53V11.35h-2.306zm-4.72 10.565c-2.629.05-4.774-1.935-4.828-4.365-.053-2.431 2.092-4.415 4.72-4.465 2.629-.05 4.774 1.935 4.828 4.365v.05c.053 2.381-1.931 4.365-4.506 4.415h-.215zm15.8-11.201a5.316 5.316 0 00-4.632 2.483V6H55v17.689h2.142v-2.18c.996 1.622 2.789 2.585 4.632 2.484 3.437 0 6.226-2.89 6.226-6.64 0-3.75-2.79-6.64-6.226-6.64zm-.25 11.15c-2.44.05-4.482-1.926-4.532-4.41-.05-2.483 1.893-4.561 4.334-4.612 2.44-.05 4.482 1.926 4.532 4.41v.101a4.383 4.383 0 01-4.184 4.562c-.05-.051-.1 0-.15-.051zm10.64-8.5v-2.159H70V24h2.164v-6.783c0-3.031 2.016-4.007 3.836-3.905V11c-1.574 0-3.05.565-3.836 2.364zM80 24h-2V11h2v13zm8.541-.001c2.262.049 4.377-1.231 5.459-3.2l-1.82-1.084a4.18 4.18 0 01-3.688 2.167 4.39 4.39 0 01-4.377-4.382 4.39 4.39 0 014.377-4.382c1.524-.049 2.95.788 3.59 2.167l1.77-1.034c-1.032-2.019-3.098-3.299-5.36-3.25A6.489 6.489 0 0082 17.5c.05 3.594 2.95 6.499 6.541 6.499zM38 8.144V6.023c-3.36-.253-5.133 1.616-5.133 4.999v.404H31v2.12h1.867V24h2.053V13.547H38v-2.121h-3.08v-.404c0-2.171 1.073-3.03 3.08-2.878z" fill="#707070"/><path d="M79 15c.552 0 1-.672 1-1.5s-.448-1.5-1-1.5-1 .672-1 1.5.448 1.5 1 1.5z" fill="#707070"/></svg>
